;FLAVOR:Marlin
;TIME:1752
;Filament used: 3.836m
;Layer height: 0.28
;MINX:35.982
;MINY:106.018
;MINZ:0.28
;MAXX:179.877
;MAXY:162.959
;MAXZ:8.62
;Generated with Cura_SteamEngine 4.4.1
M140 S60
M105
M190 S60
M104 S210
M105
M109 S210
M82 ;absolute extrusion mode
M201 X500.00 Y500.00 Z100.00 E5000.00 ;Setup machine max acceleration
M203 X500.00 Y500.00 Z10.00 E50.00 ;Setup machine max feedrate
M204 P500.00 R1000.00 T500.00 ;Setup Print/Retract/Travel acceleration
M205 X8.00 Y8.00 Z0.40 E5.00 ;Setup Jerk
M220 S100 ;Reset Feedrate
M221 S100 ;Reset Flowrate

G28 ;Home

G92 E0 ;Reset Extruder
G1 Z2.0 F3000 ;Move Z Axis up
G1 X10.1 Y20 Z0.28 F5000.0 ;Move to start position
G1 X10.1 Y200.0 Z0.28 F1500.0 E15 ;Draw the first line
G1 X10.4 Y200.0 Z0.28 F5000.0 ;Move to side a little
G1 X10.4 Y20 Z0.28 F1500.0 E30 ;Draw the second line
G92 E0 ;Reset Extruder
G1 Z2.0 F3000 ;Move Z Axis up

G92 E0
G92 E0
G1 F1500 E-6.5
;LAYER_COUNT:20
;LAYER:0
M107
G0 F6000 X46.575 Y111.626 Z0.28
;TYPE:SKIRT
G1 F1500 E0
G1 F1200 X47.45 Y111.288 E0.04368
G1 X48.052 Y111.105 E0.07298
G1 X48.551 Y110.968 E0.09707
G1 X48.844 Y110.891 E0.11118
G1 X49.362 Y110.764 E0.13601
G1 X50.281 Y110.58 E0.17965
G1 X50.805 Y110.511 E0.20426
G1 X52.228 Y110.358 E0.27091
G1 X52.45 Y110.336 E0.2813
G1 X87.138 Y107.315 E1.90263
G1 X87.289 Y107.303 E1.90968
G1 X87.972 Y107.253 E1.94157
G1 X88.286 Y107.235 E1.95621
G1 X88.533 Y107.224 E1.96773
G1 X88.994 Y107.213 E1.9892
G1 X89.776 Y107.211 E2.02561
G1 X90.15 Y107.216 E2.04303
G1 X90.468 Y107.226 E2.05784
G1 X90.949 Y107.252 E2.08027
G1 X91.294 Y107.278 E2.09638
G1 X91.665 Y107.312 E2.11373
G1 X92.751 Y107.431 E2.1646
G1 X93.127 Y107.479 E2.18225
G1 X93.376 Y107.515 E2.19397
G1 X93.817 Y107.588 E2.21478
G1 X94.257 Y107.67 E2.23562
G1 X94.622 Y107.744 E2.25297
G1 X95.308 Y107.896 E2.28568
G1 X95.822 Y108.024 E2.31035
G1 X96.284 Y108.15 E2.33265
G1 X96.625 Y108.248 E2.34917
G1 X97.652 Y108.564 E2.3992
G1 X97.795 Y108.609 E2.40618
G1 X99.498 Y109.158 E2.4895
G1 X101.898 Y109.859 E2.60592
G1 X104.369 Y110.506 E2.72486
G1 X106.796 Y111.069 E2.84087
G1 X109.256 Y111.564 E2.95772
G1 X111.752 Y111.995 E3.07566
G1 X114.225 Y112.35 E3.192
G1 X116.742 Y112.639 E3.30997
G1 X119.246 Y112.855 E3.427
G1 X121.746 Y113 E3.5436
G1 X124.259 Y113.074 E3.66067
G1 X126.783 Y113.078 E3.7782
G1 X129.313 Y113.009 E3.89605
G1 X131.797 Y112.872 E4.01189
G1 X134.335 Y112.659 E4.13049
G1 X136.837 Y112.378 E4.24772
G1 X139.318 Y112.028 E4.36439
G1 X141.781 Y111.609 E4.48073
G1 X144.284 Y111.11 E4.59957
G1 X146.686 Y110.56 E4.71431
G1 X149.152 Y109.923 E4.83291
G1 X151.583 Y109.219 E4.95076
G1 X153.959 Y108.459 E5.06692
G1 X157.197 Y107.303 E5.22701
G1 X157.753 Y107.093 E5.25469
G1 X158.013 Y106.999 E5.26756
G1 X158.373 Y106.873 E5.28532
G1 X158.937 Y106.692 E5.3129
G1 X159.14 Y106.633 E5.32275
G1 X159.64 Y106.501 E5.34683
G1 X160.002 Y106.414 E5.36416
G1 X161.03 Y106.218 E5.41289
G1 X161.574 Y106.141 E5.43848
G1 X162.695 Y106.04 E5.49089
G1 X163.269 Y106.018 E5.51763
G1 X164.43 Y106.035 E5.5717
G1 X164.949 Y106.07 E5.59592
G1 X166.072 Y106.204 E5.64858
G1 X166.654 Y106.304 E5.67608
G1 X167.845 Y106.578 E5.73299
G1 X168.364 Y106.728 E5.75814
G1 X169.314 Y107.05 E5.80485
G1 X169.662 Y107.186 E5.82225
G1 X170.503 Y107.556 E5.86503
G1 X171.092 Y107.845 E5.89558
G1 X172.168 Y108.45 E5.95306
G1 X172.395 Y108.595 E5.96561
G1 X172.704 Y108.8 E5.98287
G1 X172.995 Y109 E5.99931
G1 X173.764 Y109.579 E6.04414
G1 X174.118 Y109.871 E6.0655
G1 X174.63 Y110.321 E6.09724
G1 X174.89 Y110.564 E6.11382
G1 X175.685 Y111.388 E6.16713
G1 X176.028 Y111.783 E6.19149
G1 X176.301 Y112.11 E6.21133
G1 X176.431 Y112.272 E6.221
G1 X177.017 Y113.075 E6.26729
G1 X177.309 Y113.515 E6.29188
G1 X177.887 Y114.49 E6.34465
G1 X178.147 Y114.986 E6.37073
G1 X178.624 Y116.025 E6.42397
G1 X178.829 Y116.54 E6.44978
G1 X179.195 Y117.619 E6.50283
G1 X179.337 Y118.122 E6.52717
G1 X179.505 Y118.799 E6.55965
G1 X179.548 Y118.999 E6.56917
G1 X179.669 Y119.657 E6.60033
G1 X179.721 Y119.999 E6.61644
G1 X179.809 Y120.757 E6.65197
G1 X179.834 Y121.063 E6.66626
G1 X179.861 Y121.486 E6.686
G1 X179.877 Y121.858 E6.70334
G1 X179.877 Y122.799 E6.74716
G1 X179.864 Y123.104 E6.76137
G1 X179.845 Y123.429 E6.77653
G1 X179.827 Y123.678 E6.78815
G1 X179.711 Y124.667 E6.83452
G1 X179.644 Y125.075 E6.85377
G1 X179.473 Y125.912 E6.89355
G1 X179.346 Y126.43 E6.91839
G1 X179.156 Y127.108 E6.95118
G1 X179.041 Y127.474 E6.96904
G1 X178.934 Y127.797 E6.98488
G1 X178.819 Y128.127 E7.00116
G1 X178.744 Y128.335 E7.01145
G1 X178.535 Y128.898 E7.03942
G1 X178.465 Y129.082 E7.04858
G1 X178.23 Y129.682 E7.07859
G1 X178.153 Y129.874 E7.08822
G1 X177.787 Y130.759 E7.13281
G1 X177.679 Y131.012 E7.14562
G1 X177.188 Y132.12 E7.20206
G1 X177.075 Y132.366 E7.21466
G1 X176.726 Y133.104 E7.25267
G1 X176.623 Y133.315 E7.26361
G1 X176.232 Y134.098 E7.30436
G1 X176.112 Y134.332 E7.31661
G1 X175.592 Y135.314 E7.36835
G1 X175.456 Y135.564 E7.3816
G1 X174.89 Y136.569 E7.43531
G1 X174.746 Y136.816 E7.44862
G1 X174.169 Y137.781 E7.50097
G1 X174.028 Y138.011 E7.51354
G1 X173.539 Y138.785 E7.55617
G1 X173.431 Y138.953 E7.56547
G1 X173.099 Y139.458 E7.59361
G1 X172.969 Y139.651 E7.60444
G1 X172.457 Y140.395 E7.6465
G1 X172.312 Y140.6 E7.65819
G1 X171.628 Y141.547 E7.71259
G1 X171.451 Y141.785 E7.7264
G1 X170.793 Y142.646 E7.77686
G1 X170.607 Y142.883 E7.79088
G1 X169.902 Y143.755 E7.8431
G1 X169.727 Y143.965 E7.85583
G1 X169.016 Y144.801 E7.90693
G1 X168.847 Y144.996 E7.91895
G1 X168.23 Y145.688 E7.96212
G1 X168.077 Y145.856 E7.9727
G1 X167.628 Y146.339 E8.0034
G1 X167.485 Y146.49 E8.01309
G1 X166.901 Y147.095 E8.05224
G1 X166.713 Y147.285 E8.06469
G1 X165.881 Y148.106 E8.11912
G1 X165.677 Y148.303 E8.13232
G1 X164.787 Y149.137 E8.18912
G1 X164.593 Y149.313 E8.20131
G1 X163.993 Y149.849 E8.23878
G1 X163.822 Y149.999 E8.24937
G1 X163.333 Y150.418 E8.27935
G1 X163.185 Y150.543 E8.28837
G1 X162.452 Y151.149 E8.33266
G1 X162.235 Y151.324 E8.34564
G1 X161.347 Y152.021 E8.39821
G1 X161.111 Y152.201 E8.41203
G1 X160.153 Y152.912 E8.46758
G1 X159.958 Y153.053 E8.47878
G1 X159.35 Y153.484 E8.51349
G1 X159.138 Y153.631 E8.5255
G1 X158.377 Y154.144 E8.56823
G1 X158.168 Y154.281 E8.57987
G1 X157.197 Y154.904 E8.63359
G1 X156.946 Y155.06 E8.64735
G1 X155.93 Y155.674 E8.70263
G1 X155.707 Y155.806 E8.71469
G1 X154.998 Y156.212 E8.75274
G1 X154.809 Y156.318 E8.76283
G1 X154.22 Y156.64 E8.79409
G1 X154.026 Y156.743 E8.80431
G1 X153.22 Y157.163 E8.84663
G1 X152.984 Y157.282 E8.85894
G1 X151.943 Y157.793 E8.91294
G1 X151.675 Y157.921 E8.92677
G1 X150.716 Y158.36 E8.97588
G1 X150.47 Y158.469 E8.98841
G1 X149.441 Y158.91 E9.04054
G1 X149.178 Y159.018 E9.05378
G1 X148.156 Y159.425 E9.105
G1 X147.869 Y159.535 E9.11931
G1 X146.785 Y159.932 E9.17307
G1 X146.553 Y160.014 E9.18453
G1 X145.776 Y160.279 E9.22275
G1 X145.537 Y160.357 E9.23446
G1 X144.682 Y160.627 E9.27621
G1 X144.44 Y160.701 E9.28799
G1 X143.363 Y161.014 E9.34022
G1 X143.068 Y161.095 E9.35446
G1 X142.021 Y161.368 E9.40484
G1 X141.761 Y161.433 E9.41732
G1 X140.688 Y161.685 E9.46865
G1 X140.407 Y161.747 E9.48205
G1 X139.332 Y161.97 E9.53317
G1 X139.026 Y162.029 E9.54768
G1 X137.936 Y162.223 E9.59923
G1 X137.669 Y162.267 E9.61183
G1 X136.543 Y162.439 E9.66487
G1 X136.285 Y162.475 E9.677
G1 X135.375 Y162.592 E9.71972
G1 X135.152 Y162.619 E9.73018
G1 X134.596 Y162.679 E9.75622
G1 X134.384 Y162.699 E9.76614
G1 X133.377 Y162.788 E9.81321
G1 X133.119 Y162.808 E9.82526
G1 X132.083 Y162.875 E9.8736
G1 X131.803 Y162.89 E9.88666
G1 X130.526 Y162.94 E9.94617
G1 X130.252 Y162.947 E9.95893
G1 X129.474 Y162.958 E9.99516
G1 X129.285 Y162.959 E10.00396
G1 X128.624 Y162.957 E10.03474
G1 X128.376 Y162.953 E10.04629
G1 X127.397 Y162.928 E10.09189
G1 X127.165 Y162.92 E10.1027
G1 X126.223 Y162.876 E10.14661
G1 X125.986 Y162.862 E10.15767
G1 X125.167 Y162.806 E10.19589
G1 X124.894 Y162.784 E10.20864
G1 X123.759 Y162.678 E10.26173
G1 X123.483 Y162.649 E10.27465
G1 X122.39 Y162.519 E10.3259
G1 X122.105 Y162.481 E10.33929
G1 X121.033 Y162.325 E10.38973
G1 X120.747 Y162.28 E10.40321
G1 X119.628 Y162.087 E10.45609
G1 X119.335 Y162.032 E10.46997
G1 X118.198 Y161.804 E10.52397
G1 X117.982 Y161.759 E10.53424
G1 X117.386 Y161.627 E10.56267
G1 X117.226 Y161.59 E10.57031
G1 X116.64 Y161.451 E10.59836
G1 X116.465 Y161.408 E10.60675
G1 X115.868 Y161.256 E10.63543
G1 X115.656 Y161.2 E10.64564
G1 X114.761 Y160.953 E10.68888
G1 X114.518 Y160.883 E10.70065
G1 X113.421 Y160.553 E10.75399
G1 X113.131 Y160.461 E10.76816
G1 X112.029 Y160.096 E10.82222
G1 X111.791 Y160.014 E10.83394
G1 X111.012 Y159.736 E10.87245
G1 X110.783 Y159.652 E10.88381
G1 X109.935 Y159.328 E10.92608
G1 X109.696 Y159.233 E10.93806
G1 X108.711 Y158.83 E10.98761
G1 X108.443 Y158.716 E11.00117
G1 X107.362 Y158.24 E11.05617
G1 X107.097 Y158.119 E11.06974
G1 X106.119 Y157.657 E11.1201
G1 X105.856 Y157.529 E11.13372
G1 X104.912 Y157.052 E11.18297
G1 X104.67 Y156.926 E11.19568
G1 X103.707 Y156.409 E11.24657
G1 X103.456 Y156.27 E11.25993
G1 X102.867 Y155.934 E11.29151
G1 X100.612 Y154.688 E11.41147
G1 X98.371 Y153.531 E11.52891
G1 X96.089 Y152.434 E11.64681
G1 X93.825 Y151.424 E11.76224
G1 X91.465 Y150.448 E11.88116
G1 X89.091 Y149.544 E11.99945
G1 X86.756 Y148.733 E12.11455
G1 X84.384 Y147.982 E12.2304
G1 X81.913 Y147.276 E12.35007
G1 X79.47 Y146.649 E12.46751
G1 X77.046 Y146.105 E12.58319
G1 X74.544 Y145.613 E12.70192
G1 X72.094 Y145.205 E12.81758
G1 X69.606 Y144.862 E12.93452
G1 X67.087 Y144.587 E13.05252
G1 X64.562 Y144.383 E13.17047
G1 X62.086 Y144.253 E13.28593
G1 X58.653 Y144.189 E13.44581
G1 X56.119 Y144.224 E13.56381
G1 X54.766 Y144.273 E13.62686
G1 X53.438 Y144.331 E13.68875
G1 X52.136 Y144.31 E13.74939
G1 X51.349 Y144.251 E13.78614
G1 X50.967 Y144.216 E13.804
G1 X50.74 Y144.191 E13.81463
G1 X49.813 Y144.049 E13.8583
G1 X49.204 Y143.91 E13.88739
G1 X48.648 Y143.767 E13.91412
G1 X48.366 Y143.691 E13.92772
G1 X47.904 Y143.559 E13.95009
G1 X47.014 Y143.263 E13.99377
G1 X46.383 Y143 E14.0256
G1 X45.728 Y142.703 E14.05909
G1 X45.415 Y142.555 E14.07521
G1 X45.102 Y142.401 E14.09145
G1 X44.279 Y141.951 E14.13513
G1 X43.713 Y141.586 E14.16649
G1 X43.178 Y141.217 E14.19675
G1 X42.891 Y141.013 E14.21315
G1 X42.559 Y140.768 E14.23236
G1 X41.701 Y140.065 E14.28401
G1 X41.486 Y139.87 E14.29753
G1 X41.186 Y139.587 E14.31673
G1 X41.006 Y139.411 E14.32845
G1 X40.17 Y138.496 E14.38616
G1 X39.566 Y137.755 E14.43068
G1 X39.286 Y137.397 E14.45184
G1 X39.158 Y137.226 E14.46179
G1 X38.628 Y136.452 E14.50547
G1 X38.267 Y135.827 E14.53908
G1 X37.867 Y135.08 E14.57853
G1 X37.695 Y134.744 E14.59611
G1 X37.538 Y134.425 E14.61266
G1 X37.16 Y133.567 E14.65632
G1 X36.912 Y132.864 E14.69103
G1 X36.76 Y132.38 E14.71466
G1 X36.644 Y131.983 E14.73392
G1 X36.47 Y131.346 E14.76466
G1 X36.261 Y130.431 E14.80837
G1 X36.133 Y129.518 E14.8513
G1 X36.079 Y128.966 E14.87712
G1 X36.055 Y128.68 E14.89049
G1 X36.009 Y128.037 E14.9205
G1 X35.982 Y127.099 E14.9642
G1 X36.028 Y126.235 E15.00449
G1 X36.072 Y125.761 E15.02665
G1 X36.107 Y125.437 E15.04183
G1 X36.177 Y124.867 E15.06857
G1 X36.331 Y123.942 E15.11223
G1 X36.488 Y123.293 E15.14333
G1 X36.679 Y122.598 E15.17689
G1 X36.777 Y122.263 E15.19314
G1 X36.867 Y121.972 E15.20732
G1 X37.182 Y121.088 E15.25102
G1 X37.463 Y120.453 E15.28336
G1 X37.806 Y119.74 E15.3202
G1 X37.961 Y119.431 E15.33629
G1 X38.127 Y119.112 E15.35304
G1 X38.595 Y118.299 E15.39672
G1 X38.871 Y117.886 E15.41985
G1 X39.085 Y117.58 E15.43724
G1 X39.307 Y117.273 E15.45488
G1 X39.604 Y116.878 E15.47789
G1 X40.325 Y116.016 E15.53022
G1 X40.475 Y115.854 E15.5405
G1 X40.768 Y115.549 E15.56019
G1 X40.915 Y115.402 E15.56987
G1 X41.093 Y115.228 E15.58146
G1 X41.522 Y114.818 E15.6091
G1 X42.227 Y114.199 E15.65278
G1 X42.763 Y113.794 E15.68406
G1 X43.377 Y113.359 E15.7191
G1 X43.697 Y113.141 E15.73713
G1 X44.003 Y112.94 E15.75418
G1 X44.808 Y112.459 E15.79785
G1 X45.34 Y112.19 E15.8256
G1 X45.892 Y111.929 E15.85404
G1 X46.205 Y111.787 E15.87004
G1 X46.575 Y111.626 E15.88883
G0 F6000 X46.735 Y111.992
G1 F1200 X47.594 Y111.662 E15.93168
G1 X48.158 Y111.49 E15.95913
G1 X48.657 Y111.353 E15.98323
G1 X48.939 Y111.28 E15.99679
G1 X49.457 Y111.153 E16.02163
G1 X50.36 Y110.973 E16.0645
G1 X50.848 Y110.909 E16.08742
G1 X52.271 Y110.756 E16.15406
G1 X52.484 Y110.735 E16.16403
G1 X87.172 Y107.714 E17.78536
G1 X87.318 Y107.702 E17.79218
G1 X88.001 Y107.652 E17.82407
G1 X88.303 Y107.634 E17.83816
G1 X88.55 Y107.623 E17.84967
G1 X88.995 Y107.613 E17.8704
G1 X89.777 Y107.611 E17.90681
G1 X90.137 Y107.616 E17.92358
G1 X90.455 Y107.626 E17.93839
G1 X90.919 Y107.651 E17.96003
G1 X91.264 Y107.677 E17.97614
G1 X91.622 Y107.71 E17.99288
G1 X92.708 Y107.829 E18.04375
G1 X93.07 Y107.875 E18.06074
G1 X93.319 Y107.911 E18.07246
G1 X93.744 Y107.981 E18.09251
G1 X94.184 Y108.063 E18.11336
G1 X94.535 Y108.135 E18.13004
G1 X95.221 Y108.287 E18.16276
G1 X95.717 Y108.41 E18.18655
G1 X96.179 Y108.536 E18.20885
G1 X96.507 Y108.631 E18.22475
G1 X97.534 Y108.947 E18.27479
G1 X97.672 Y108.99 E18.28152
G1 X99.368 Y109.537 E18.36449
G1 X101.79 Y110.244 E18.48198
G1 X104.249 Y110.888 E18.60034
G1 X106.732 Y111.464 E18.71903
G1 X109.181 Y111.957 E18.83536
G1 X111.698 Y112.391 E18.95429
G1 X114.158 Y112.745 E19.07001
G1 X116.695 Y113.036 E19.18892
G1 X119.225 Y113.254 E19.30717
G1 X121.746 Y113.401 E19.42475
G1 X124.246 Y113.474 E19.54121
G1 X126.793 Y113.478 E19.65981
G1 X129.311 Y113.409 E19.77711
G1 X131.851 Y113.269 E19.89556
G1 X134.345 Y113.06 E20.0121
G1 X136.896 Y112.773 E20.13163
G1 X139.374 Y112.424 E20.24816
G1 X141.855 Y112.002 E20.36534
G1 X144.379 Y111.499 E20.48518
G1 X146.77 Y110.951 E20.5994
G1 X149.291 Y110.3 E20.72064
G1 X151.678 Y109.609 E20.83635
G1 X154.089 Y108.838 E20.95422
G1 X157.361 Y107.67 E21.11599
G1 X157.894 Y107.468 E21.14254
G1 X158.145 Y107.376 E21.15498
G1 X158.505 Y107.25 E21.17274
G1 X159.049 Y107.076 E21.19934
G1 X159.252 Y107.017 E21.20918
G1 X159.733 Y106.889 E21.23236
G1 X160.095 Y106.802 E21.2497
G1 X161.086 Y106.614 E21.29666
G1 X161.63 Y106.537 E21.32225
G1 X162.71 Y106.44 E21.37274
G1 X163.284 Y106.418 E21.39949
G1 X164.403 Y106.434 E21.4516
G1 X164.922 Y106.469 E21.47582
G1 X166.004 Y106.598 E21.52656
G1 X166.586 Y106.698 E21.55406
G1 X167.734 Y106.962 E21.60891
G1 X168.253 Y107.112 E21.63406
G1 X169.168 Y107.422 E21.67905
G1 X169.516 Y107.558 E21.69645
G1 X170.327 Y107.915 E21.73771
G1 X170.916 Y108.204 E21.76826
G1 X171.953 Y108.787 E21.82365
G1 X172.18 Y108.932 E21.83619
G1 X172.478 Y109.129 E21.85283
G1 X172.769 Y109.329 E21.86927
G1 X173.51 Y109.888 E21.91249
G1 X173.864 Y110.18 E21.93386
G1 X174.357 Y110.613 E21.96441
G1 X174.617 Y110.856 E21.98098
G1 X175.383 Y111.65 E22.03236
G1 X175.726 Y112.045 E22.05671
G1 X175.989 Y112.361 E22.07586
G1 X176.119 Y112.523 E22.08553
G1 X176.684 Y113.296 E22.13011
G1 X176.976 Y113.736 E22.1547
G1 X177.532 Y114.676 E22.20556
G1 X177.792 Y115.172 E22.23163
G1 X178.252 Y116.173 E22.28293
G1 X178.457 Y116.688 E22.30874
G1 X178.81 Y117.728 E22.35988
G1 X178.952 Y118.231 E22.38422
G1 X179.114 Y118.883 E22.4155
G1 X179.157 Y119.083 E22.42503
G1 X179.274 Y119.718 E22.45509
G1 X179.326 Y120.06 E22.4712
G1 X179.411 Y120.79 E22.50542
G1 X179.436 Y121.096 E22.51972
G1 X179.461 Y121.504 E22.53875
G1 X179.477 Y121.876 E22.55609
G1 X179.477 Y122.782 E22.59828
G1 X179.464 Y123.087 E22.61249
G1 X179.446 Y123.4 E22.62709
G1 X179.428 Y123.649 E22.63872
G1 X179.316 Y124.603 E22.68344
G1 X179.249 Y125.011 E22.7027
G1 X179.084 Y125.817 E22.74101
G1 X178.957 Y126.335 E22.76584
G1 X178.775 Y126.988 E22.79741
G1 X178.66 Y127.354 E22.81527
